X:64
T:Sonatina in C Major
C:Beethoven (arr David Grisman)
N:TablEdited by Wendy Anthony
L:1/8
Q:1/4=120
M:4/4
K:C
"Allegro"CE Gc eg c'g | af c'a ge c'g | fd gf ec ge | dc BA GF ED | CE Gc eg c'g | 
af c'a ge c'g | fa gf ed cB | cG EG C2 G,2 | G,B, DG Bd gf | ed cB cd ec | BG ^FG Bd gf | 
ed cB cd e^f | g^f af gf af | gf dB GF DB, | CE Gc eg c'g | af c'a ge c'g | fa gf ed cB | 
cG EG C4 | 
 

